icons/suitcase.svg

<svg xmlns="http://www.w3.org/2000/svg" viewBox="0 0 24 24" fill="currentColor">
  <path d="M8.75 5.25C8.75 4.56421 9.31421 4 10 4h4c.61 0 1.25.58798 1.25 1.25V6h-6.5v-.75ZM7.25 6v-.75C7.25 3.73579 8.48579 2.5 10 2.5h4c1.39 0 2.75 1.21202 2.75 2.75V6H17c2.6142 0 4.75 2.13579 4.75 4.75v6c0 2.6142-2.1358 4.75-4.75 4.75H7c-2.61421 0-4.75-2.1358-4.75-4.75v-6C2.25 8.13579 4.38579 6 7 6h.25Zm0 14H7c-1.78579 0-3.25-1.4642-3.25-3.25v-6C3.75 8.96421 5.21421 7.5 7 7.5h.25V20Zm1.5 0V7.5h6.5V20h-6.5Zm8 0H17c1.7858 0 3.25-1.4642 3.25-3.25v-6c0-1.78579-1.4642-3.25-3.25-3.25h-.25V20Z"/>
</svg>

<svg width="24" height="24" viewBox="0 0 24 24" fill="none" xmlns="http://www.w3.org/2000/svg">
<path fill-rule="evenodd" clip-rule="evenodd" d="M8.75 5.25C8.75 4.56421 9.31421 4 10 4H14C14.61 4 15.25 4.58798 15.25 5.25V6H8.75V5.25ZM7.25 6V5.25C7.25 3.73579 8.48579 2.5 10 2.5H14C15.39 2.5 16.75 3.71202 16.75 5.25V6H17C19.6142 6 21.75 8.13579 21.75 10.75V16.75C21.75 19.3642 19.6142 21.5 17 21.5H16.75H7.25H7C4.38579 21.5 2.25 19.3642 2.25 16.75V10.75C2.25 8.13579 4.38579 6 7 6H7.25ZM7.25 20H7C5.21421 20 3.75 18.5358 3.75 16.75V10.75C3.75 8.96421 5.21421 7.5 7 7.5H7.25V20ZM8.75 20V7.5H15.25V20H8.75ZM16.75 20H17C18.7858 20 20.25 18.5358 20.25 16.75V10.75C20.25 8.96421 18.7858 7.5 17 7.5H16.75V20Z" fill="black"/>
</svg>
